icon-themes/breeze_svg/cmd/lc_heading6parastyle.svg

<svg viewBox="0 0 24 24" xmlns="http://www.w3.org/2000/svg"><path d="m3 4v16h2v-7h7v7h2v-16h-2v7h-7v-7z" fill="#4d4d4d"/><path d="m19.90625 12c-1.300387 0-2.277894.376578-2.931641 1.130859-.650194.754281-.974609 1.903126-.974609 3.447266 0 .722259.11476 1.341174.345703 1.853516.234497.512341.565831.901124.992188 1.167968.429909.266845.932231.400391 1.507812.400391.831395 0 1.48218-.242684 1.951172-.726562.468992-.487436.703125-1.145961.703125-1.978516 0-.77207-.197417-1.376828-.591797-1.814453s-.940336-.658203-1.636719-.658203c-.774547 0-1.33771.303357-1.689453.908203h-.068359c.031977-.615522.136804-1.091336.314453-1.425781.177649-.334446.443531-.587032.798828-.757813.35885-.170781.821796-.255859 1.386719-.255859.309108 0 .621286.036263.9375.107422v-1.31836c-.252261-.053367-.600801-.080078-1.044922-.080078zm-1.060547 4.087891c.355298 0 .620827.11144.794922.332031.177649.217034.265625.515786.265625.896484 0 .437625-.092943.775291-.28125 1.013672-.188308.234823-.458802.351563-.810547.351563-.341085 0-.623819-.145751-.847656-.4375-.220285-.291751-.330078-.648873-.330078-1.072266 0-.288192.117066-.540779.351562-.757813.238049-.217033.523443-.326171.857422-.326171z" fill="#1d99f3"/></svg>

<svg xmlns="http://www.w3.org/2000/svg" viewBox="0 0 24 24">
 <path 
     style="fill:#4d4d4d" 
     d="M 3 4 L 3 20 L 5 20 L 5 13 L 12 13 L 12 20 L 14 20 L 14 4 L 12 4 L 12 11 L 5 11 L 5 4 L 3 4 z "
     />
 <path 
     style="fill:#1d99f3" 
     d="M 19.90625 12 C 18.605863 12 17.628356 12.376578 16.974609 13.130859 C 16.324415 13.88514 16 15.033985 16 16.578125 C 16 17.300384 16.11476 17.919299 16.345703 18.431641 C 16.5802 18.943982 16.911534 19.332765 17.337891 19.599609 C 17.7678 19.866454 18.270122 20 18.845703 20 C 19.677098 20 20.327883 19.757316 20.796875 19.273438 C 21.265867 18.786002 21.5 18.127477 21.5 17.294922 C 21.5 16.522852 21.302583 15.918094 20.908203 15.480469 C 20.513823 15.042844 19.967867 14.822266 19.271484 14.822266 C 18.496937 14.822266 17.933774 15.125623 17.582031 15.730469 L 17.513672 15.730469 C 17.545649 15.114947 17.650476 14.639133 17.828125 14.304688 C 18.005774 13.970242 18.271656 13.717656 18.626953 13.546875 C 18.985803 13.376094 19.448749 13.291016 20.013672 13.291016 C 20.32278 13.291016 20.634958 13.327279 20.951172 13.398438 L 20.951172 12.080078 C 20.698911 12.026711 20.350371 12 19.90625 12 z M 18.845703 16.087891 C 19.201001 16.087891 19.46653 16.199331 19.640625 16.419922 C 19.818274 16.636956 19.90625 16.935708 19.90625 17.316406 C 19.90625 17.754031 19.813307 18.091697 19.625 18.330078 C 19.436692 18.564901 19.166198 18.681641 18.814453 18.681641 C 18.473368 18.681641 18.190634 18.53589 17.966797 18.244141 C 17.746512 17.95239 17.636719 17.595268 17.636719 17.171875 C 17.636719 16.883683 17.753785 16.631096 17.988281 16.414062 C 18.22633 16.197029 18.511724 16.087891 18.845703 16.087891 z "
     />
 </svg>
